X:18745
T:Whitehaven Volunteers
R:Reel
O:England
M:4/4
K:G
dc|\
B2B2 BcBA|G2G2 G3D|G2B2 d2B2|edcB A2dc|\
B2B2 BcBA|G2G2 G3D|E2c2 A2F2|G4 G2::
dc|\
B2d2 d2ef|g2d2 d3c|B2d2 d2B2|AGAB A2dc|\
B2d2 d2ef|gfga g2dc|B2G2 A2F2|G4 G2:|


